X: 15465
T: Glenburnie Rant
R: reel
M: 4/4
K: Eminor
|:F|E2 EF G2 GB|(AB)AG (FE)DF|E2 EF G2 GB|(ef)e^d (e2 e):|
B|e2 ef g2 fe|defg afdf|(e[B^d])ef (ga)gf|efe^d (e2 e)B|
e^def {a}gfge|=defg afdf|g2 bg f2 af|(ef)e^d (e2e)||

